X: 6474
T:Hunting the Hare
M:4/4
L:1/8
S:Bear Sessions
K:D
D2 | d2 D2 FG A2 | B2 ed cB A2 | d2 D2 FG A2 | B2 fe d2 A2 | d2 D2 FG A2
 | B2 ed cB A2 | d2 D2 FG A2 | B2 fe d2 :|
e2 | fede fede | f2 fg fedf | e2 ef e2 f2 | g2 f2 e2 A2 | d2 D2 FG A2 |
B2 ed cB A2 | d2 D2 FG A2 | B2 fe d2 :|
